src/assets/icons/image-plus.svg

<svg fill="none" viewBox="0 0 24 24"><path stroke="currentColor" stroke-linecap="round" stroke-linejoin="round" stroke-width="1.5" d="M19.71 12.18v5.7c0 .42-.166.82-.462 1.12-.296.294-.698.46-1.116.46H7.08c-.42 0-.82-.166-1.12-.46-.294-.3-.46-.7-.46-1.12V6.83c0-.42.166-.82.46-1.12.3-.294.7-.46 1.12-.46h5.67"/><path stroke="currentColor" stroke-linecap="round" stroke-linejoin="round" stroke-width="1.5" d="m17.342 8.15-2.436-2.44a1.586 1.586 0 0 0-2.233 0L5.5 12.886"/><path stroke="currentColor" stroke-linecap="round" stroke-linejoin="round" stroke-width="1.5" d="M10.41 11.24a1.58 1.58 0 1 0-.002-3.162 1.58 1.58 0 0 0 .002 3.162M15.5 6.37h4.74M17.87 4v4.74"/></svg>

<svg width="24" height="24" viewBox="0 0 24 24" fill="none" xmlns="http://www.w3.org/2000/svg">
<path d="M19.71 12.18V17.88C19.71 18.3 19.544 18.7 19.248 19C18.952 19.294 18.55 19.46 18.132 19.46H7.08C6.66 19.46 6.26 19.294 5.96 19C5.666 18.7 5.5 18.3 5.5 17.88V6.83C5.5 6.41 5.666 6.01 5.96 5.71C6.26 5.416 6.66 5.25 7.08 5.25H12.75" stroke="#314158" stroke-width="1.5" stroke-linecap="round" stroke-linejoin="round"/>
<path d="M17.342 8.15L14.906 5.71C14.61 5.416 14.208 5.25 13.79 5.25C13.371 5.25 12.97 5.416 12.673 5.71L5.5 12.886" stroke="#314158" stroke-width="1.5" stroke-linecap="round" stroke-linejoin="round"/>
<path d="M10.41 11.24C11.282 11.24 11.99 10.532 11.99 9.66C11.99 8.788 11.282 8.08 10.41 8.08C9.538 8.08 8.83 8.788 8.83 9.66C8.83 10.532 9.538 11.24 10.41 11.24Z" stroke="#314158" stroke-width="1.5" stroke-linecap="round" stroke-linejoin="round"/>
<path d="M15.5 6.37H20.24" stroke="#314158" stroke-width="1.5" stroke-linecap="round" stroke-linejoin="round"/>
<path d="M17.87 4V8.74" stroke="#314158" stroke-width="1.5" stroke-linecap="round" stroke-linejoin="round"/>
</svg>
